X:931
T:Hopeful Lover, The
S:Bobby Macleod
Z:Nigel Gatherer
M:2/4
L:1/8
K:A
A>A ce | aa fe | A>A ce | aa f2  |
A>A ce | aa fe | f>e ce | EF A2 :|
c>c cB | ce fe | c>c ce | c/B/A B2 |
c>c cB | ce fe | f/g/a/f/ ec | c/B/A A2 :|
<end>
<start>
